symbols/web/airplanemode_active/materialsymbolsoutlined/airplanemode_active_wght100grad200_40px.svg

<svg xmlns="http://www.w3.org/2000/svg" height="40" width="40"><path d="M14.875 35.875v-1.583l3.417-2.459V21.417l-14.5 4.25v-1.792l14.5-8.5V5.542q0-.792.479-1.271.479-.479 1.229-.479.75 0 1.229.479.479.479.479 1.271v9.833l14.5 8.5v1.792l-14.5-4.25V31.75l3.417 2.542v1.583L20 34.375Z"/></svg>

<svg xmlns="http://www.w3.org/2000/svg" height="40" width="40"><path d="M14.875 35.875V34.292L18.292 31.833V21.417L3.792 25.667V23.875L18.292 15.375V5.542Q18.292 4.75 18.771 4.271Q19.25 3.792 20 3.792Q20.75 3.792 21.229 4.271Q21.708 4.75 21.708 5.542V15.375L36.208 23.875V25.667L21.708 21.417V31.75L25.125 34.292V35.875L20 34.375Z"/></svg>
